icons/glyphs/glyph-ubiquity.svg

<?xml version="1.0" encoding="UTF-8" standalone="no"?><svg height="16" viewBox="0 0 4.2333332 4.2333332" width="16" xmlns="http://www.w3.org/2000/svg"><sodipodi:namedview><inkscape:grid/></sodipodi:namedview><metadata><rdf:RDF><cc:Work><dc:format>image/svg+xml</dc:format><dc:type/><dc:title/></cc:Work></rdf:RDF></metadata><path d="m3.7666813 3.2863951a.46665067.46665067 0 0 0 -.4604549.3929048h-.7294149a.46665067.46665067 0 0 0 -.4604548-.3891863.46665067.46665067 0 0 0 -.459835.3891863h-.73189381a.46665067.46665067 0 0 0 -.45797594-.3792707.46665067.46665067 0 0 0 -.46665204.466652.46665067.46665067 0 0 0  .46665204.466652.46665067.46665067 0 0 0  .45301814-.3575807h.74614751a.46665067.46665067 0 0 0  .4505391.3476651.46665067.46665067 0 0 0  .451159-.3476651h.7492459a.46665067.46665067 0 0 0  .4499197.3439466.46665067.46665067 0 0 0  .466652-.466652.46665067.46665067 0 0 0 -.466652-.466652z" fill="#d0d0d0" stroke-linecap="round" stroke-miterlimit="26.700001" stroke-width=".396875"/><path d="m .4765625 0c-.26350457 0-.4765625.21305793-.4765625.4765625v10.2792965c0 .263505.21305793.47461.4765625.47461h15.0468755c.263504 0 .476562-.211105.476562-.47461v-10.2792965c0-.26350457-.213058-.4765625-.476562-.4765625zm6.4160156 2.6425781h2.2148438v1.1308594h1.9160161l-3.023438 5.2382813-3.0234375-5.2382813h1.9160156z" fill="#d0d0d0" stroke-linecap="round" stroke-miterlimit="26.700001" stroke-width="1.5" transform="scale(.26458333)"/></svg>

<?xml version="1.0" encoding="UTF-8" standalone="no"?>
<!-- Created with Inkscape (http://www.inkscape.org/) -->

<svg
   xmlns:dc="http://purl.org/dc/elements/1.1/"
   xmlns:cc="http://creativecommons.org/ns#"
   xmlns:rdf="http://www.w3.org/1999/02/22-rdf-syntax-ns#"
   xmlns:svg="http://www.w3.org/2000/svg"
   xmlns="http://www.w3.org/2000/svg"
   xmlns:sodipodi="http://sodipodi.sourceforge.net/DTD/sodipodi-0.dtd"
   xmlns:inkscape="http://www.inkscape.org/namespaces/inkscape"
   width="16"
   height="16"
   viewBox="0 0 4.2333332 4.2333332"
   version="1.1"
   id="svg8"
   inkscape:version="0.92+devel (b8837397f6, 2017-07-27, custom)"
   sodipodi:docname="glyph-ubiquity.svg">
  <defs
     id="defs2" />
  <sodipodi:namedview
     id="base"
     pagecolor="#002466"
     bordercolor="#ffffff"
     borderopacity="0.38039216"
     inkscape:pageopacity="1"
     inkscape:pageshadow="2"
     inkscape:zoom="36.415999"
     inkscape:cx="10.094581"
     inkscape:cy="7.9162778"
     inkscape:document-units="px"
     inkscape:current-layer="svg8"
     inkscape:document-rotation="0"
     showgrid="false"
     inkscape:showpageshadow="false"
     borderlayer="true"
     inkscape:window-width="1920"
     inkscape:window-height="1051"
     inkscape:window-x="0"
     inkscape:window-y="0"
     inkscape:window-maximized="1"
     units="px"
     inkscape:snap-page="true">
    <inkscape:grid
       type="xygrid"
       id="grid832" />
  </sodipodi:namedview>
  <metadata
     id="metadata5">
    <rdf:RDF>
      <cc:Work
         rdf:about="">
        <dc:format>image/svg+xml</dc:format>
        <dc:type
           rdf:resource="http://purl.org/dc/dcmitype/StillImage" />
        <dc:title></dc:title>
      </cc:Work>
    </rdf:RDF>
  </metadata>
  <path
     style="font-variation-settings:normal;vector-effect:none;fill:#d0d0d0;stroke-width:0.39687499;stroke-linecap:round;stroke-miterlimit:26.70000076"
     d="M 3.7666813,3.2863951 A 0.46665067,0.46665067 0 0 0 3.3062264,3.6792999 H 2.5768115 A 0.46665067,0.46665067 0 0 0 2.1163567,3.2901136 0.46665067,0.46665067 0 0 0 1.6565217,3.6792999 H 0.92462789 A 0.46665067,0.46665067 0 0 0 0.46665195,3.3000292 0.46665067,0.46665067 0 0 0 -9e-8,3.7666812 0.46665067,0.46665067 0 0 0 0.46665195,4.2333332 0.46665067,0.46665067 0 0 0 0.91967009,3.8757525 H 1.6658176 a 0.46665067,0.46665067 0 0 0 0.4505391,0.3476651 0.46665067,0.46665067 0 0 0 0.451159,-0.3476651 h 0.7492459 a 0.46665067,0.46665067 0 0 0 0.4499197,0.3439466 0.46665067,0.46665067 0 0 0 0.466652,-0.466652 0.46665067,0.46665067 0 0 0 -0.466652,-0.466652 z"
     id="path814"
     inkscape:connector-curvature="0"
     inkscape:label="#" />
  <path
     style="font-variation-settings:normal;vector-effect:none;fill:#d0d0d0;stroke-width:1.5;stroke-linecap:round;stroke-miterlimit:26.70000076"
     d="M 0.4765625 0 C 0.21305793 3.7007434e-17 1.1775883e-17 0.21305793 0 0.4765625 L 0 10.755859 C 3.7007434e-17 11.019364 0.21305793 11.230469 0.4765625 11.230469 L 15.523438 11.230469 C 15.786942 11.230469 16 11.019364 16 10.755859 L 16 0.4765625 C 16 0.21305793 15.786942 1.1775883e-17 15.523438 0 L 0.4765625 0 z M 6.8925781 2.6425781 L 9.1074219 2.6425781 L 9.1074219 3.7734375 L 11.023438 3.7734375 L 8 9.0117188 L 4.9765625 3.7734375 L 6.8925781 3.7734375 L 6.8925781 2.6425781 z "
     transform="scale(0.26458333)"
     id="rect822"
     inkscape:label="#" />
</svg>
